packages/kaspersky-hexa-ui-icons/src/iconsSVGs/28x20/FlagDz.svg

<svg width="28" height="20" viewBox="0 0 28 20" fill="none" xmlns="http://www.w3.org/2000/svg">
<g clip-path="url(#clip0_5138_701)">
<path d="M0 2C0 0.895431 0.895431 0 2 0H26C27.1046 0 28 0.895431 28 2V18C28 19.1046 27.1046 20 26 20H2C0.895431 20 0 19.1046 0 18V2Z" fill="white"/>
<mask id="mask0_5138_701" style="mask-type:luminance" maskUnits="userSpaceOnUse" x="0" y="0" width="28" height="20">
<rect width="28" height="20" rx="2" fill="white"/>
</mask>
<g mask="url(#mask0_5138_701)">
<path d="M26 19.5V20H2V19.5H26ZM27.5 18V2C27.5 1.17157 26.8284 0.5 26 0.5H2C1.17157 0.5 0.5 1.17157 0.5 2V18C0.5 18.8284 1.17157 19.5 2 19.5V20C0.895431 20 0 19.1046 0 18V2C2.57702e-07 0.895431 0.895431 0 2 0H26C27.1046 0 28 0.895431 28 2V18C28 19.1046 27.1046 20 26 20V19.5C26.8284 19.5 27.5 18.8284 27.5 18Z" fill="#F5F5F5"/>
<path fill-rule="evenodd" clip-rule="evenodd" d="M0 20H14.6667V0H0V20Z" fill="#048345"/>
<path fill-rule="evenodd" clip-rule="evenodd" d="M17.3333 11.04L15.7659 12.1574L16.3442 10.3214L14.7972 9.17596L16.722 9.15863L17.3333 7.33334L17.9446 9.15863L19.8695 9.17596L18.3224 10.3214L18.9008 12.1574L17.3333 11.04Z" fill="#E81B42"/>
<path fill-rule="evenodd" clip-rule="evenodd" d="M17.68 5.61867C16.9709 5.28113 16.1688 5.09091 15.3193 5.09091C12.4319 5.09091 10.0912 7.28878 10.0912 10C10.0912 12.7112 12.4319 14.9091 15.3193 14.9091C16.1688 14.9091 16.9709 14.7189 17.68 14.3813C16.6519 15.3853 15.2702 16 13.7509 16C10.5748 16 8 13.3137 8 10C8 6.68629 10.5748 4 13.7509 4C15.2702 4 16.6519 4.61468 17.68 5.61867Z" fill="#E81B42"/>
</g>
</g>
<defs>
<clipPath id="clip0_5138_701">
<rect width="28" height="20" fill="white"/>
</clipPath>
</defs>
</svg>

<svg xmlns="http://www.w3.org/2000/svg" width="28" height="20" fill="none" viewBox="0 0 28 20"><g clip-path="url(#a)"><path fill="#fff" d="M0 2C0 .8954.8954 0 2 0h24c1.1046 0 2 .8954 2 2v16c0 1.1046-.8954 2-2 2H2c-1.1046 0-2-.8954-2-2z"/><mask id="b" width="28" height="20" x="0" y="0" maskUnits="userSpaceOnUse" style="mask-type:luminance"><rect width="28" height="20" fill="#fff" rx="2"/></mask><g mask="url(#b)"><path fill="#f5f5f5" d="M26 19.5v.5H2v-.5zm1.5-1.5V2c0-.8284-.6716-1.5-1.5-1.5H2C1.1716.5.5 1.1716.5 2v16c0 .8284.6716 1.5 1.5 1.5v.5c-1.1046 0-2-.8954-2-2V2C0 .8954.8954 0 2 0h24c1.1046 0 2 .8954 2 2v16c0 1.1046-.8954 2-2 2v-.5c.8284 0 1.5-.6716 1.5-1.5"/><path fill="#048345" fill-rule="evenodd" d="M0 20h14.6667V0H0z" clip-rule="evenodd"/><path fill="#e81b42" fill-rule="evenodd" d="m17.3333 11.04-1.5674 1.1174.5783-1.836-1.547-1.1454 1.9248-.0174.6113-1.8253.6113 1.8253 1.9249.0174-1.5471 1.1454.5784 1.836z" clip-rule="evenodd"/><path fill="#e81b42" fill-rule="evenodd" d="M17.68 5.6187c-.7091-.3376-1.5112-.5278-2.3607-.5278-2.8874 0-5.2281 2.1979-5.2281 4.9091s2.3407 4.9091 5.2281 4.9091c.8495 0 1.6516-.1902 2.3607-.5278C16.6519 15.3853 15.2702 16 13.7509 16 10.5748 16 8 13.3137 8 10s2.5748-6 5.7509-6c1.5193 0 2.901.6147 3.9291 1.6187" clip-rule="evenodd"/></g></g><defs><clipPath id="a"><path fill="#fff" d="M0 0h28v20H0z"/></clipPath></defs></svg>
